svgs/duotone/hospital.svg

<svg xmlns="http://www.w3.org/2000/svg" viewBox="0 0 640 512"><!--! Font Awesome Pro 6.6.0 by @fontawesome - https://fontawesome.com License - https://fontawesome.com/license (Commercial License) Copyright 2024 Fonticons, Inc. --><defs><style>.fa-secondary{opacity:.4}</style></defs><path class="fa-secondary" d="M0 144l0 48 80 0c8.8 0 16 7.2 16 16s-7.2 16-16 16L0 224l0 64 80 0c8.8 0 16 7.2 16 16s-7.2 16-16 16L0 320 0 464c0 26.5 21.5 48 48 48l112 0 0-416L48 96C21.5 96 0 117.5 0 144zM480 96l0 416 112 0c26.5 0 48-21.5 48-48l0-144-80 0c-8.8 0-16-7.2-16-16s7.2-16 16-16l80 0 0-64-80 0c-8.8 0-16-7.2-16-16s7.2-16 16-16l80 0 0-48c0-26.5-21.5-48-48-48L480 96z"/><path class="fa-primary" d="M208 0c-26.5 0-48 21.5-48 48l0 464 112 0 0-80c0-26.5 21.5-48 48-48s48 21.5 48 48l0 80 112 0 0-464c0-26.5-21.5-48-48-48L208 0zM640 224l0-32-80 0c-8.8 0-16 7.2-16 16s7.2 16 16 16l80 0zm0 96l0-32-80 0c-8.8 0-16 7.2-16 16s7.2 16 16 16l80 0zM80 224c8.8 0 16-7.2 16-16s-7.2-16-16-16L0 192l0 32 80 0zm0 96c8.8 0 16-7.2 16-16s-7.2-16-16-16L0 288l0 32 80 0zM312 64l16 0c8.8 0 16 7.2 16 16l0 24 24 0c8.8 0 16 7.2 16 16l0 16c0 8.8-7.2 16-16 16l-24 0 0 24c0 8.8-7.2 16-16 16l-16 0c-8.8 0-16-7.2-16-16l0-24-24 0c-8.8 0-16-7.2-16-16l0-16c0-8.8 7.2-16 16-16l24 0 0-24c0-8.8 7.2-16 16-16z"/></svg>

<svg xmlns="http://www.w3.org/2000/svg" viewBox="0 0 640 512"><!--! Font Awesome Pro 6.4.0 by @fontawesome - https://fontawesome.com License - https://fontawesome.com/license (Commercial License) Copyright 2023 Fonticons, Inc. --><defs><style>.fa-secondary{opacity:.4}</style></defs><path class="fa-primary" d="M208 0c-26.5 0-48 21.5-48 48V512H272V432c0-26.5 21.5-48 48-48s48 21.5 48 48v80H480V48c0-26.5-21.5-48-48-48H208zM640 224V192H560c-8.8 0-16 7.2-16 16s7.2 16 16 16h80zm0 96V288H560c-8.8 0-16 7.2-16 16s7.2 16 16 16h80zM80 224c8.8 0 16-7.2 16-16s-7.2-16-16-16H0v32H80zm0 96c8.8 0 16-7.2 16-16s-7.2-16-16-16H0v32H80zM312 64h16c8.8 0 16 7.2 16 16v24h24c8.8 0 16 7.2 16 16v16c0 8.8-7.2 16-16 16H344v24c0 8.8-7.2 16-16 16H312c-8.8 0-16-7.2-16-16V152H272c-8.8 0-16-7.2-16-16V120c0-8.8 7.2-16 16-16h24V80c0-8.8 7.2-16 16-16z"/><path class="fa-secondary" d="M48 96C21.5 96 0 117.5 0 144v48H80c8.8 0 16 7.2 16 16s-7.2 16-16 16H0v64H80c8.8 0 16 7.2 16 16s-7.2 16-16 16H0V464c0 26.5 21.5 48 48 48H160V96H48zm544 0H480V512H592c26.5 0 48-21.5 48-48V320H560c-8.8 0-16-7.2-16-16s7.2-16 16-16h80V224H560c-8.8 0-16-7.2-16-16s7.2-16 16-16h80V144c0-26.5-21.5-48-48-48z"/></svg>
